markets/BCH.svg

<svg width="42" height="42" viewBox="0 0 42 42" fill="none" xmlns="http://www.w3.org/2000/svg">
<g clip-path="url(#clip0_7277_57282)">
<path d="M21 42C32.598 42 42 32.598 42 21C42 9.40202 32.598 0 21 0C9.40202 0 0 9.40202 0 21C0 32.598 9.40202 42 21 42Z" fill="#8DC351"/>
<path d="M27.8337 13.8258C26.8152 11.2376 24.261 11.004 21.2869 11.5815L20.2277 7.8894L17.9807 8.53384L19.0124 12.1301C18.4217 12.2981 17.8206 12.4845 17.2234 12.6682L16.1865 9.04834L13.9409 9.69147L14.9974 13.3835C14.5144 13.5332 14.0393 13.6802 13.5734 13.814L13.5694 13.8009L10.4693 14.6895L11.1584 17.0913C11.1584 17.0913 12.8095 16.5821 12.7898 16.6215C13.7007 16.3603 14.1482 16.8039 14.3648 17.2357L15.5723 21.441C15.634 21.4239 15.7167 21.4029 15.8138 21.3885L15.5762 21.4567L17.2654 27.3498C17.3074 27.6478 17.2707 28.1531 16.6354 28.3368C16.6709 28.3539 15 28.8041 15 28.8041L15.3242 31.6168L18.2485 30.7768C18.7932 30.6232 19.3313 30.4788 19.8576 30.3305L20.9299 34.0646L23.1743 33.4215L22.1151 29.7268C22.7171 29.567 23.3174 29.4008 23.9159 29.228L24.9685 32.907L27.2168 32.2625L26.1484 28.535C29.8641 27.2343 32.2358 25.5242 31.5467 21.8807C30.9929 18.9485 29.284 18.0587 26.991 18.1584C28.104 17.1215 28.5831 15.7198 27.8337 13.8272V13.8258ZM26.9805 22.7115C27.7812 25.5032 22.9118 26.5558 21.3893 26.9942L19.9705 22.046C21.493 21.609 26.1445 19.8017 26.9792 22.7128L26.9805 22.7115ZM23.9329 16.0308C24.66 18.5705 20.59 19.4171 19.3208 19.7807L18.0345 15.2932C19.3024 14.9297 23.173 13.3835 23.9329 16.0322V16.0308Z" fill="white"/>
</g>
<defs>
<clipPath id="clip0_7277_57282">
<rect width="42" height="42" fill="white"/>
</clipPath>
</defs>
</svg>

<svg xmlns="http://www.w3.org/2000/svg" width="42" height="42" fill="none"><g clip-path="url(#a)"><path fill="#8DC351" d="M21 42c11.598 0 21-9.402 21-21S32.598 0 21 0 0 9.402 0 21s9.402 21 21 21Z"/><path fill="#fff" d="M27.834 13.826c-1.019-2.588-3.573-2.822-6.547-2.245l-1.06-3.692-2.246.645 1.031 3.596c-.59.168-1.191.354-1.789.538l-1.037-3.62-2.245.643 1.056 3.692c-.483.15-.958.297-1.424.431l-.004-.013-3.1.889.69 2.401s1.65-.509 1.63-.47c.912-.26 1.36.183 1.576.615l1.207 4.205c.062-.017.145-.038.242-.052l-.238.068 1.69 5.893c.041.298.005.803-.63.987.035.017-1.636.467-1.636.467l.324 2.813 2.925-.84c.544-.154 1.082-.298 1.609-.447l1.072 3.735 2.244-.643-1.059-3.695c.602-.16 1.202-.326 1.8-.499l1.053 3.679 2.249-.644-1.069-3.728c3.716-1.3 6.088-3.01 5.399-6.654-.554-2.933-2.263-3.822-4.556-3.723 1.113-1.037 1.592-2.438.843-4.33v-.002Zm-.854 8.886c.801 2.791-4.068 3.844-5.59 4.282l-1.42-4.948c1.523-.437 6.175-2.244 7.01.667v-.002Zm-3.047-6.681c.727 2.54-3.343 3.386-4.612 3.75l-1.287-4.488c1.268-.363 5.139-1.91 5.899.74v-.002Z"/></g><defs><clipPath id="a"><path fill="#fff" d="M0 0h42v42H0z"/></clipPath></defs></svg>
